X: 1
T: Gan Ainm
M: 6/8
L: 1/8
R: jig
K: D Dorian
|: d2 c |\
ADD ABc | ADD A/B/cA | GED ~E3 | GAc d2 c | 
ADD ABc | ADD D/E/FD | E2 C A,B,C |[1 DFA :|[2 D2 E ||
|: ~F3 |\ 
ABc Ad^c | d2 e fed | edc dgg | a2 g fed |
e2 f edc | Adc ADD | CA,G, A,DD |[1 D2 E :|[2  DFA |]
